src/assets/icons/hide.svg

<svg width="20" height="20" viewBox="0 0 20 20" fill="none" xmlns="http://www.w3.org/2000/svg">
<path fill-rule="evenodd" clip-rule="evenodd" d="M2.97724 2L1.87805 3.08126L16.0227 17L17.1219 15.9184L2.97724 2Z" fill="black" fill-opacity="0.6"/>
<path d="M4.20032 5.3662L5.23492 6.38424C4.10236 7.33314 3.20051 8.51428 2.61773 9.54769L2.61595 9.55118C4.23901 12.2215 6.81431 14.7451 10.0647 14.3624C10.942 14.259 11.7605 13.9639 12.5083 13.5416L13.5557 14.5719C12.098 15.4925 10.4271 15.9801 8.6166 15.7391C5.35204 15.3046 2.68268 12.6699 1 9.57563C1.79005 8.01137 2.87079 6.51486 4.20032 5.3662ZM6.55345 3.85747C7.4663 3.45723 8.45405 3.22184 9.50887 3.20508C9.56744 3.20473 10.2627 3.23721 10.5779 3.2882C10.7756 3.32033 10.9726 3.36049 11.1667 3.41044C14.2634 4.20427 16.5576 6.78029 18 9.43419C17.3949 10.6366 16.6023 11.8101 15.6572 12.8156L14.6538 11.8282C15.3519 11.0879 15.934 10.2636 16.3823 9.46422C16.3823 9.46422 15.9315 8.75106 15.5897 8.30334C15.37 8.01556 15.139 7.73616 14.8962 7.4669C14.7046 7.25456 13.9603 6.53337 13.7832 6.3832C12.5949 5.37772 11.1997 4.58878 9.52626 4.60205C8.87818 4.61218 8.25494 4.73791 7.66328 4.94955L6.55345 3.85747Z" fill="black" fill-opacity="0.6"/>
<path fill-rule="evenodd" clip-rule="evenodd" d="M7.01656 8.13802L7.81524 8.9236L10.8895 11.9486C10.4785 12.1756 10.0043 12.3048 9.49994 12.3048C7.92942 12.3048 6.65454 11.0504 6.65454 9.50496C6.65454 9.00869 6.78622 8.54245 7.01656 8.13802ZM9.44741 6.70578C9.4648 6.70543 9.48255 6.70508 9.49994 6.70508C11.0705 6.70508 12.3453 7.95991 12.3453 9.50496C12.3453 9.52242 12.3453 9.53954 12.345 9.55665L9.44741 6.70578Z" fill="black" fill-opacity="0.6"/>
</svg>

<svg xmlns="http://www.w3.org/2000/svg" width="20" height="20" fill="none"><path fill="#000" fill-opacity=".6" fill-rule="evenodd" d="M2.977 2 1.878 3.081 16.023 17l1.099-1.082L2.977 2Z" clip-rule="evenodd"/><path fill="#000" fill-opacity=".6" d="m4.2 5.366 1.035 1.018a11.826 11.826 0 0 0-2.617 3.164l-.002.003c1.623 2.67 4.198 5.194 7.449 4.811a6.512 6.512 0 0 0 2.443-.82l1.048 1.03c-1.458.92-3.129 1.408-4.94 1.167C5.353 15.305 2.684 12.67 1 9.576c.79-1.565 1.87-3.061 3.2-4.21Zm2.353-1.509c.913-.4 1.901-.635 2.956-.652.058 0 .754.032 1.069.083.198.032.395.072.589.122 3.096.794 5.39 3.37 6.833 6.024a14.477 14.477 0 0 1-2.343 3.382l-1.003-.988c.698-.74 1.28-1.564 1.728-2.364 0 0-.45-.713-.792-1.16-.22-.288-.451-.568-.694-.837a23.355 23.355 0 0 0-1.113-1.084C12.595 5.378 11.2 4.59 9.526 4.603a5.782 5.782 0 0 0-1.863.347l-1.11-1.093Z"/><path fill="#000" fill-opacity=".6" fill-rule="evenodd" d="m7.017 8.138.798.786 3.074 3.025a2.867 2.867 0 0 1-1.39.356c-1.57 0-2.844-1.255-2.844-2.8 0-.496.131-.963.362-1.367Zm2.43-1.432H9.5c1.57 0 2.845 1.254 2.845 2.799v.052L9.447 6.706Z" clip-rule="evenodd"/></svg>
